austria/municipalities/30859.svg

<?xml version="1.0" encoding="UTF-8"?>
<!DOCTYPE svg PUBLIC "-//W3C//DTD SVG 1.1//EN" "http://www.w3.org/Graphics/SVG/1.1/DTD/svg11.dtd">
<svg xmlns="http://www.w3.org/2000/svg" version="1.1" width="100px" height="100px" style="shape-rendering:geometricPrecision; text-rendering:geometricPrecision; image-rendering:optimizeQuality; fill-rule:evenodd; clip-rule:evenodd" xmlns:xlink="http://www.w3.org/1999/xlink">
<g><path style="opacity:1" fill="#9fbeda" d="M -0.5,-0.5 C 32.8333,-0.5 66.1667,-0.5 99.5,-0.5C 99.5,-0.166667 99.5,0.166667 99.5,0.5C 99.1667,0.5 98.8333,0.5 98.5,0.5C 65.8333,0.5 33.1667,0.5 0.5,0.5C 0.5,1.5 0.5,2.5 0.5,3.5C 0.5,7.5 0.5,11.5 0.5,15.5C 0.5,23.8333 0.5,32.1667 0.5,40.5C 0.166667,40.5 -0.166667,40.5 -0.5,40.5C -0.5,26.8333 -0.5,13.1667 -0.5,-0.5 Z"/></g>
<g><path style="opacity:1" fill="#0566fa" d="M 79.5,17.5 C 71.8333,24.8333 64.1667,32.1667 56.5,39.5C 53.6783,37.1968 53.0117,34.3634 54.5,31C 54.1667,30.8333 53.8333,30.6667 53.5,30.5C 52.7492,31.376 52.2492,32.376 52,33.5C 51.5034,31.1902 51.3367,28.8568 51.5,26.5C 52.2522,19.4172 49.0855,15.4172 42,14.5C 38.934,15.0208 36.1007,16.0208 33.5,17.5C 32.3157,16.3121 32.3157,15.1455 33.5,14C 32.1667,10.6667 30.8333,10.6667 29.5,14C 30.6843,15.1455 30.6843,16.3121 29.5,17.5C 24.1667,13.5 18.8333,13.5 13.5,17.5C 11.8615,16.0864 10.5282,16.4197 9.5,18.5C 7.67058,16.8442 6.33725,14.8442 5.5,12.5C 4.25278,14.0064 4.25278,15.5064 5.5,17C 3.81069,16.8657 2.14402,16.3657 0.5,15.5C 0.5,11.5 0.5,7.5 0.5,3.5C 2.13658,5.31617 3.63658,7.31617 5,9.5C 7.18396,6.66551 6.68396,5.33218 3.5,5.5C 3.5,4.5 3.5,3.5 3.5,2.5C 4.87344,2.34332 6.20677,2.50999 7.5,3C 6.11179,3.88934 6.27846,4.38934 8,4.5C 33.0827,1.34212 58.2493,0.675453 83.5,2.5C 83.4789,5.53477 82.1455,7.8681 79.5,9.5C 80.2129,12.0963 80.2129,14.7629 79.5,17.5 Z"/></g>
<g><path style="opacity:1" fill="#086cf5" d="M 98.5,0.5 C 98.5,0.833333 98.5,1.16667 98.5,1.5C 92.1667,6.83333 85.8333,12.1667 79.5,17.5C 80.2129,14.7629 80.2129,12.0963 79.5,9.5C 82.1455,7.8681 83.4789,5.53477 83.5,2.5C 58.2493,0.675453 33.0827,1.34212 8,4.5C 6.27846,4.38934 6.11179,3.88934 7.5,3C 6.20677,2.50999 4.87344,2.34332 3.5,2.5C 3.5,3.5 3.5,4.5 3.5,5.5C 6.68396,5.33218 7.18396,6.66551 5,9.5C 3.63658,7.31617 2.13658,5.31617 0.5,3.5C 0.5,2.5 0.5,1.5 0.5,0.5C 33.1667,0.5 65.8333,0.5 98.5,0.5 Z"/></g>
<g><path style="opacity:1" fill="#56571b" d="M 33.5,17.5 C 33.5,18.1667 33.5,18.8333 33.5,19.5C 32.8343,22.0277 32.1676,24.6944 31.5,27.5C 30.8324,24.6944 30.1657,22.0277 29.5,19.5C 29.5,18.8333 29.5,18.1667 29.5,17.5C 30.6843,16.3121 30.6843,15.1455 29.5,14C 30.8333,10.6667 32.1667,10.6667 33.5,14C 32.3157,15.1455 32.3157,16.3121 33.5,17.5 Z"/></g>
<g><path style="opacity:1" fill="#f70a18" d="M 29.5,17.5 C 29.5,18.1667 29.5,18.8333 29.5,19.5C 29.7839,22.7766 29.4505,25.9433 28.5,29C 27.0852,28.7445 25.5852,28.2445 24,27.5C 22.1348,27.7055 20.4681,28.3722 19,29.5C 17.1132,28.2453 15.2799,28.2453 13.5,29.5C 13.6716,28.5084 13.3382,27.8417 12.5,27.5C 12.3424,24.0977 12.6758,20.7644 13.5,17.5C 18.8333,13.5 24.1667,13.5 29.5,17.5 Z"/></g>
<g><path style="opacity:1" fill="#f30912" d="M 51.5,26.5 C 50.596,27.209 50.2627,28.209 50.5,29.5C 47.8636,27.9158 45.5303,28.2492 43.5,30.5C 42.7303,28.7282 41.3969,27.7282 39.5,27.5C 37.845,28.3877 36.1783,28.8877 34.5,29C 33.5495,25.9433 33.2161,22.7766 33.5,19.5C 33.5,18.8333 33.5,18.1667 33.5,17.5C 36.1007,16.0208 38.934,15.0208 42,14.5C 49.0855,15.4172 52.2522,19.4172 51.5,26.5 Z"/></g>
<g><path style="opacity:1" fill="#0869f9" d="M 13.5,17.5 C 12.6758,20.7644 12.3424,24.0977 12.5,27.5C 12.5792,28.9305 12.2458,30.2638 11.5,31.5C 13.6818,33.7109 14.6818,36.3775 14.5,39.5C 25.5,39.5 36.5,39.5 47.5,39.5C 47.767,37.0347 48.4336,34.7014 49.5,32.5C 50.404,31.791 50.7373,30.791 50.5,29.5C 50.2627,28.209 50.596,27.209 51.5,26.5C 51.3367,28.8568 51.5034,31.1902 52,33.5C 52.2492,32.376 52.7492,31.376 53.5,30.5C 53.8333,30.6667 54.1667,30.8333 54.5,31C 53.0117,34.3634 53.6783,37.1968 56.5,39.5C 42.8641,51.8014 29.5308,64.4681 16.5,77.5C 7.10231,67.027 1.76898,54.6936 0.5,40.5C 0.5,32.1667 0.5,23.8333 0.5,15.5C 2.14402,16.3657 3.81069,16.8657 5.5,17C 4.25278,15.5064 4.25278,14.0064 5.5,12.5C 6.33725,14.8442 7.67058,16.8442 9.5,18.5C 10.5282,16.4197 11.8615,16.0864 13.5,17.5 Z"/></g>
<g><path style="opacity:1" fill="#eeedeb" d="M 29.5,19.5 C 30.1657,22.0277 30.8324,24.6944 31.5,27.5C 32.1676,24.6944 32.8343,22.0277 33.5,19.5C 33.2161,22.7766 33.5495,25.9433 34.5,29C 36.1783,28.8877 37.845,28.3877 39.5,27.5C 41.3969,27.7282 42.7303,28.7282 43.5,30.5C 45.5303,28.2492 47.8636,27.9158 50.5,29.5C 50.7373,30.791 50.404,31.791 49.5,32.5C 48.8106,31.2264 47.9772,31.2264 47,32.5C 45.9806,34.2694 45.814,35.9361 46.5,37.5C 36.1667,38.8333 25.8333,38.8333 15.5,37.5C 16.4113,34.4783 15.7446,31.8116 13.5,29.5C 15.2799,28.2453 17.1132,28.2453 19,29.5C 20.4681,28.3722 22.1348,27.7055 24,27.5C 25.5852,28.2445 27.0852,28.7445 28.5,29C 29.4505,25.9433 29.7839,22.7766 29.5,19.5 Z"/></g>
<g><path style="opacity:1" fill="#1c1e1f" d="M 22.5,30.5 C 23.5,30.5 24.5,30.5 25.5,30.5C 25.762,31.9778 25.4287,33.3112 24.5,34.5C 22.8888,33.6798 22.2222,32.3464 22.5,30.5 Z"/></g>
<g><path style="opacity:1" fill="#232627" d="M 29.5,29.5 C 30.5,29.5 31.5,29.5 32.5,29.5C 32.762,30.9778 32.4287,32.3112 31.5,33.5C 29.8888,32.6798 29.2222,31.3464 29.5,29.5 Z"/></g>
<g><path style="opacity:1" fill="#7a8fb0" d="M 12.5,27.5 C 13.3382,27.8417 13.6716,28.5084 13.5,29.5C 15.7446,31.8116 16.4113,34.4783 15.5,37.5C 25.8333,38.8333 36.1667,38.8333 46.5,37.5C 45.814,35.9361 45.9806,34.2694 47,32.5C 47.9772,31.2264 48.8106,31.2264 49.5,32.5C 48.4336,34.7014 47.767,37.0347 47.5,39.5C 36.5,39.5 25.5,39.5 14.5,39.5C 14.6818,36.3775 13.6818,33.7109 11.5,31.5C 12.2458,30.2638 12.5792,28.9305 12.5,27.5 Z"/></g>
<g><path style="opacity:1" fill="#161817" d="M 37.5,31.5 C 38.552,31.3505 39.552,31.5172 40.5,32C 39.2986,32.9025 38.4652,34.0692 38,35.5C 37.51,34.2068 37.3433,32.8734 37.5,31.5 Z"/></g>
<g><path style="opacity:1" fill="#fbfaf9" d="M 98.5,0.5 C 98.8333,0.5 99.1667,0.5 99.5,0.5C 99.5,33.5 99.5,66.5 99.5,99.5C 66.1667,99.5 32.8333,99.5 -0.5,99.5C -0.5,79.8333 -0.5,60.1667 -0.5,40.5C -0.166667,40.5 0.166667,40.5 0.5,40.5C 1.76898,54.6936 7.10231,67.027 16.5,77.5C 18.1884,81.1884 20.855,83.8551 24.5,85.5C 31.0536,91.6153 38.7203,95.9486 47.5,98.5C 57.5922,96.7873 66.2589,92.454 73.5,85.5C 73.8333,85.5 74.1667,85.5 74.5,85.5C 87.2005,75.1091 95.0339,61.7758 98,45.5C 98.4999,30.8371 98.6666,16.1705 98.5,1.5C 98.5,1.16667 98.5,0.833333 98.5,0.5 Z"/></g>
<g><path style="opacity:1" fill="#828808" d="M 98.5,1.5 C 98.6666,16.1705 98.4999,30.8371 98,45.5C 95.0339,61.7758 87.2005,75.1091 74.5,85.5C 76.3211,81.2592 79.1545,77.5926 83,74.5C 83.6172,73.5509 83.4506,72.7175 82.5,72C 83.448,71.5172 84.448,71.3505 85.5,71.5C 86.6679,68.3229 88.0012,65.1563 89.5,62C 89.1667,61.8333 88.8333,61.6667 88.5,61.5C 86.694,63.6077 84.5273,65.2744 82,66.5C 78.7844,65.2049 75.6177,64.8715 72.5,65.5C 71.7611,65.631 71.0944,65.4643 70.5,65C 71.624,64.7508 72.624,64.2508 73.5,63.5C 71.8333,61.5 70.1667,59.5 68.5,57.5C 68.8333,57.1667 69.1667,56.8333 69.5,56.5C 73.0962,59.1322 77.0962,59.9655 81.5,59C 83.1458,57.4452 83.4791,55.7785 82.5,54C 86.6037,50.9585 86.1037,48.7918 81,47.5C 80.3828,46.5509 80.5494,45.7175 81.5,45C 74.1251,44.692 69.7918,48.192 68.5,55.5C 67.8333,55.8333 67.1667,56.1667 66.5,56.5C 66.5333,53.1013 66.3666,49.4346 66,45.5C 65.2588,44.3595 64.4255,44.3595 63.5,45.5C 59.7141,39.9541 57.2141,40.6207 56,47.5C 55.3333,46.1667 54.6667,46.1667 54,47.5C 52.5443,51.0153 52.3777,54.5153 53.5,58C 55.1341,58.4935 56.8008,58.6602 58.5,58.5C 57.736,61.787 55.9027,64.4537 53,66.5C 45.2967,64.3528 43.7967,66.3528 48.5,72.5C 49.6447,75.9393 50.978,79.2727 52.5,82.5C 50.9681,81.6304 49.4681,81.9638 48,83.5C 46.7453,82.7894 45.5786,81.956 44.5,81C 39.0543,80.6751 33.721,80.5085 28.5,80.5C 26.6675,81.2485 25.0009,82.2485 23.5,83.5C 23.8627,84.1835 24.1961,84.8501 24.5,85.5C 20.855,83.8551 18.1884,81.1884 16.5,77.5C 29.5308,64.4681 42.8641,51.8014 56.5,39.5C 64.1667,32.1667 71.8333,24.8333 79.5,17.5C 85.8333,12.1667 92.1667,6.83333 98.5,1.5 Z"/></g>
<g><path style="opacity:1" fill="#082506" d="M 59.5,62.5 C 60.1667,63.5 60.8333,64.5 61.5,65.5C 62.0327,70.2226 63.366,70.5559 65.5,66.5C 66.8159,69.028 67.9826,69.028 69,66.5C 69.3742,67.4162 69.8742,68.2496 70.5,69C 68.0614,69.5334 67.3948,70.7 68.5,72.5C 68.7709,74.3797 68.1042,75.713 66.5,76.5C 64.032,77.7501 61.6987,77.5834 59.5,76C 61.2182,75.654 62.8849,75.154 64.5,74.5C 65.8946,75.8146 66.8946,75.4812 67.5,73.5C 66.8396,71.0403 65.5063,70.3736 63.5,71.5C 64.0253,72.1924 64.6919,72.6924 65.5,73C 62.854,73.4974 60.1873,73.6641 57.5,73.5C 57.3739,75.1998 56.7073,76.6998 55.5,78C 55.9054,78.9454 56.572,79.6121 57.5,80C 55.4971,80.3345 53.8304,81.1679 52.5,82.5C 50.978,79.2727 49.6447,75.9393 48.5,72.5C 50.205,71.4647 51.8716,71.4647 53.5,72.5C 54.2162,70.518 55.3829,68.8513 57,67.5C 58.1827,68.731 59.3493,68.731 60.5,67.5C 59.8333,66.1667 59.1667,64.8333 58.5,63.5C 58.6236,62.8933 58.9569,62.56 59.5,62.5 Z"/></g>
<g><path style="opacity:1" fill="#123605" d="M 72.5,65.5 C 72.9234,66.2646 73.2568,67.0979 73.5,68C 71.9375,69.7352 70.2708,71.2352 68.5,72.5C 67.3948,70.7 68.0614,69.5334 70.5,69C 69.8742,68.2496 69.3742,67.4162 69,66.5C 67.9826,69.028 66.8159,69.028 65.5,66.5C 63.366,70.5559 62.0327,70.2226 61.5,65.5C 63.8568,65.6633 66.1902,65.4966 68.5,65C 67.2532,63.5421 67.2532,62.0421 68.5,60.5C 64.9579,58.9218 61.9579,59.5885 59.5,62.5C 58.9569,62.56 58.6236,62.8933 58.5,63.5C 59.1667,64.8333 59.8333,66.1667 60.5,67.5C 59.3493,68.731 58.1827,68.731 57,67.5C 55.3829,68.8513 54.2162,70.518 53.5,72.5C 51.8716,71.4647 50.205,71.4647 48.5,72.5C 43.7967,66.3528 45.2967,64.3528 53,66.5C 55.9027,64.4537 57.736,61.787 58.5,58.5C 56.8008,58.6602 55.1341,58.4935 53.5,58C 52.3777,54.5153 52.5443,51.0153 54,47.5C 54.6667,46.1667 55.3333,46.1667 56,47.5C 57.2141,40.6207 59.7141,39.9541 63.5,45.5C 64.4255,44.3595 65.2588,44.3595 66,45.5C 66.3666,49.4346 66.5333,53.1013 66.5,56.5C 67.1667,56.1667 67.8333,55.8333 68.5,55.5C 69.7918,48.192 74.1251,44.692 81.5,45C 80.5494,45.7175 80.3828,46.5509 81,47.5C 86.1037,48.7918 86.6037,50.9585 82.5,54C 83.4791,55.7785 83.1458,57.4452 81.5,59C 77.0962,59.9655 73.0962,59.1322 69.5,56.5C 69.1667,56.8333 68.8333,57.1667 68.5,57.5C 70.1667,59.5 71.8333,61.5 73.5,63.5C 72.624,64.2508 71.624,64.7508 70.5,65C 71.0944,65.4643 71.7611,65.631 72.5,65.5 Z"/></g>
<g><path style="opacity:1" fill="#7c8d05" d="M 61.5,65.5 C 60.8333,64.5 60.1667,63.5 59.5,62.5C 61.9579,59.5885 64.9579,58.9218 68.5,60.5C 67.2532,62.0421 67.2532,63.5421 68.5,65C 66.1902,65.4966 63.8568,65.6633 61.5,65.5 Z"/></g>
<g><path style="opacity:1" fill="#0b3405" d="M 66.5,76.5 C 64.7619,81.7665 62.0953,86.4332 58.5,90.5C 57.5041,90.5858 56.6708,90.2524 56,89.5C 54.7322,87.1875 53.5655,84.8542 52.5,82.5C 53.8304,81.1679 55.4971,80.3345 57.5,80C 56.572,79.6121 55.9054,78.9454 55.5,78C 56.7073,76.6998 57.3739,75.1998 57.5,73.5C 60.1873,73.6641 62.854,73.4974 65.5,73C 64.6919,72.6924 64.0253,72.1924 63.5,71.5C 65.5063,70.3736 66.8396,71.0403 67.5,73.5C 66.8946,75.4812 65.8946,75.8146 64.5,74.5C 62.8849,75.154 61.2182,75.654 59.5,76C 61.6987,77.5834 64.032,77.7501 66.5,76.5 Z"/></g>
<g><path style="opacity:1" fill="#6e7002" d="M 74.5,85.5 C 74.1667,85.5 73.8333,85.5 73.5,85.5C 68.523,87.7421 63.6896,90.4087 59,93.5C 57.2716,92.6477 57.105,91.6477 58.5,90.5C 62.0953,86.4332 64.7619,81.7665 66.5,76.5C 68.1042,75.713 68.7709,74.3797 68.5,72.5C 70.2708,71.2352 71.9375,69.7352 73.5,68C 73.2568,67.0979 72.9234,66.2646 72.5,65.5C 75.6177,64.8715 78.7844,65.2049 82,66.5C 84.5273,65.2744 86.694,63.6077 88.5,61.5C 88.8333,61.6667 89.1667,61.8333 89.5,62C 88.0012,65.1563 86.6679,68.3229 85.5,71.5C 84.448,71.3505 83.448,71.5172 82.5,72C 83.4506,72.7175 83.6172,73.5509 83,74.5C 79.1545,77.5926 76.3211,81.2592 74.5,85.5 Z"/></g>
<g><path style="opacity:1" fill="#9a9909" d="M 52.5,82.5 C 53.5655,84.8542 54.7322,87.1875 56,89.5C 56.6708,90.2524 57.5041,90.5858 58.5,90.5C 57.105,91.6477 57.2716,92.6477 59,93.5C 63.6896,90.4087 68.523,87.7421 73.5,85.5C 66.2589,92.454 57.5922,96.7873 47.5,98.5C 38.7203,95.9486 31.0536,91.6153 24.5,85.5C 24.1961,84.8501 23.8627,84.1835 23.5,83.5C 25.0009,82.2485 26.6675,81.2485 28.5,80.5C 33.721,80.5085 39.0543,80.6751 44.5,81C 45.5786,81.956 46.7453,82.7894 48,83.5C 49.4681,81.9638 50.9681,81.6304 52.5,82.5 Z"/></g>
</svg>

<svg xmlns="http://www.w3.org/2000/svg" width="100" height="100" style="shape-rendering:geometricPrecision;text-rendering:geometricPrecision;image-rendering:optimizeQuality;fill-rule:evenodd;clip-rule:evenodd"><path style="opacity:1" fill="#9fbeda" d="M-.5-.5h100v1H.5v40h-1v-41z"/><path style="opacity:1" fill="#0566fa" d="m79.5 17.5-23 22c-2.822-2.303-3.488-5.137-2-8.5l-1-.5a6.807 6.807 0 0 0-1.5 3 24.939 24.939 0 0 1-.5-7c.752-7.083-2.414-11.083-9.5-12-3.066.52-5.9 1.52-8.5 3-1.184-1.188-1.184-2.354 0-3.5-1.333-3.333-2.667-3.333-4 0 1.184 1.146 1.184 2.312 0 3.5-5.333-4-10.667-4-16 0-1.639-1.414-2.972-1.08-4 1a14.582 14.582 0 0 1-4-6c-1.247 1.506-1.247 3.006 0 4.5-1.69-.134-3.356-.634-5-1.5v-12a42.774 42.774 0 0 1 4.5 6c2.184-2.834 1.684-4.168-1.5-4v-3a8.434 8.434 0 0 1 4 .5c-1.388.89-1.222 1.39.5 1.5a382.352 382.352 0 0 1 75.5-2c-.021 3.035-1.355 5.368-4 7 .713 2.596.713 5.263 0 8z"/><path style="opacity:1" fill="#086cf5" d="M98.5.5v1l-19 16c.713-2.737.713-5.404 0-8 2.645-1.632 3.979-3.965 4-7A382.352 382.352 0 0 0 8 4.5c-1.722-.11-1.888-.61-.5-1.5a8.434 8.434 0 0 0-4-.5v3c3.184-.168 3.684 1.166 1.5 4a42.774 42.774 0 0 0-4.5-6v-3h98z"/><path style="opacity:1" fill="#56571b" d="M33.5 17.5v2a345.557 345.557 0 0 0-2 8 345.557 345.557 0 0 0-2-8v-2c1.184-1.188 1.184-2.354 0-3.5 1.333-3.333 2.667-3.333 4 0-1.184 1.146-1.184 2.312 0 3.5z"/><path style="opacity:1" fill="#f70a18" d="M29.5 17.5v2c.284 3.277-.05 6.443-1 9.5-1.415-.256-2.915-.756-4.5-1.5a9.818 9.818 0 0 0-5 2c-1.887-1.255-3.72-1.255-5.5 0 .172-.992-.162-1.658-1-2a34.17 34.17 0 0 1 1-10c5.333-4 10.667-4 16 0z"/><path style="opacity:1" fill="#f30912" d="M51.5 26.5c-.904.709-1.237 1.709-1 3-2.636-1.584-4.97-1.25-7 1-.77-1.772-2.103-2.772-4-3-1.655.888-3.322 1.388-5 1.5-.95-3.057-1.284-6.223-1-9.5v-2c2.6-1.48 5.434-2.48 8.5-3 7.086.917 10.252 4.917 9.5 12z"/><path style="opacity:1" fill="#0869f9" d="M13.5 17.5a34.17 34.17 0 0 0-1 10 6.845 6.845 0 0 1-1 4c2.182 2.21 3.182 4.877 3 8h33a21.16 21.16 0 0 1 2-7c.904-.709 1.237-1.709 1-3-.237-1.291.096-2.291 1-3-.163 2.357.003 4.69.5 7a6.807 6.807 0 0 1 1.5-3l1 .5c-1.488 3.363-.822 6.197 2 8.5a1072.339 1072.339 0 0 0-40 38C7.102 67.027 1.769 54.694.5 40.5v-25c1.644.866 3.31 1.366 5 1.5-1.247-1.494-1.247-2.994 0-4.5a14.582 14.582 0 0 0 4 6c1.028-2.08 2.361-2.414 4-1z"/><path style="opacity:1" fill="#eeedeb" d="M29.5 19.5a345.557 345.557 0 0 1 2 8 345.557 345.557 0 0 1 2-8c-.284 3.277.05 6.443 1 9.5 1.678-.112 3.345-.612 5-1.5 1.897.228 3.23 1.228 4 3 2.03-2.25 4.364-2.584 7-1 .237 1.291-.096 2.291-1 3-.69-1.274-1.523-1.274-2.5 0-1.02 1.77-1.186 3.436-.5 5a120.628 120.628 0 0 1-31 0c.911-3.022.245-5.688-2-8 1.78-1.255 3.613-1.255 5.5 0a9.818 9.818 0 0 1 5-2c1.585.744 3.085 1.244 4.5 1.5.95-3.057 1.284-6.223 1-9.5z"/><path style="opacity:1" fill="#1c1e1f" d="M22.5 30.5h3c.262 1.478-.071 2.811-1 4-1.611-.82-2.278-2.154-2-4z"/><path style="opacity:1" fill="#232627" d="M29.5 29.5h3c.262 1.478-.071 2.811-1 4-1.611-.82-2.278-2.154-2-4z"/><path style="opacity:1" fill="#7a8fb0" d="M12.5 27.5c.838.342 1.172 1.008 1 2 2.245 2.312 2.911 4.978 2 8a120.628 120.628 0 0 0 31 0c-.686-1.564-.52-3.23.5-5 .977-1.274 1.81-1.274 2.5 0a21.16 21.16 0 0 0-2 7h-33c.182-3.123-.818-5.79-3-8a6.845 6.845 0 0 0 1-4z"/><path style="opacity:1" fill="#161817" d="M37.5 31.5a4.932 4.932 0 0 1 3 .5 6.975 6.975 0 0 0-2.5 3.5 8.434 8.434 0 0 1-.5-4z"/><path style="opacity:1" fill="#fbfaf9" d="M98.5.5h1v99H-.5v-59h1c1.269 14.194 6.602 26.527 16 37 1.688 3.688 4.355 6.355 8 8 6.554 6.115 14.22 10.449 23 13 10.092-1.713 18.759-6.046 26-13h1c12.7-10.39 20.534-23.724 23.5-40 .5-14.663.667-29.33.5-44v-1z"/><path style="opacity:1" fill="#828808" d="M98.5 1.5c.167 14.67 0 29.337-.5 44-2.966 16.276-10.8 29.61-23.5 40 1.821-4.24 4.654-7.907 8.5-11 .617-.95.45-1.782-.5-2.5a4.932 4.932 0 0 1 3-.5 113.19 113.19 0 0 1 4-9.5l-1-.5a19.895 19.895 0 0 1-6.5 5c-3.216-1.295-6.382-1.629-9.5-1a2.428 2.428 0 0 1-2-.5 6.807 6.807 0 0 0 3-1.5l-5-6 1-1c3.596 2.632 7.596 3.465 12 2.5 1.646-1.555 1.98-3.221 1-5 4.104-3.041 3.604-5.208-1.5-6.5-.617-.95-.45-1.782.5-2.5-7.375-.308-11.708 3.192-13 10.5l-2 1c.033-3.399-.133-7.065-.5-11-.741-1.14-1.575-1.14-2.5 0-3.786-5.546-6.286-4.88-7.5 2-.667-1.333-1.333-1.333-2 0-1.456 3.515-1.622 7.015-.5 10.5 1.634.493 3.3.66 5 .5-.764 3.287-2.597 5.954-5.5 8-7.703-2.147-9.203-.147-4.5 6a90.2 90.2 0 0 0 4 10c-1.532-.87-3.032-.536-4.5 1a20.473 20.473 0 0 1-3.5-2.5 276.25 276.25 0 0 0-16-.5 18.941 18.941 0 0 0-5 3c.363.683.696 1.35 1 2-3.645-1.645-6.312-4.312-8-8a1072.339 1072.339 0 0 1 40-38l23-22 19-16z"/><path style="opacity:1" fill="#082506" d="m59.5 62.5 2 3c.533 4.723 1.866 5.056 4 1 1.316 2.528 2.483 2.528 3.5 0 .374.916.874 1.75 1.5 2.5-2.439.533-3.105 1.7-2 3.5.27 1.88-.396 3.213-2 4-2.468 1.25-4.801 1.083-7-.5a28.04 28.04 0 0 0 5-1.5c1.395 1.315 2.395.981 3-1-.66-2.46-1.994-3.126-4-2a4.452 4.452 0 0 0 2 1.5 32.437 32.437 0 0 1-8 .5c-.126 1.7-.793 3.2-2 4.5.405.945 1.072 1.612 2 2-2.003.335-3.67 1.168-5 2.5a90.2 90.2 0 0 1-4-10c1.705-1.035 3.372-1.035 5 0a11.497 11.497 0 0 1 3.5-5c1.183 1.231 2.35 1.231 3.5 0l-2-4c.124-.607.457-.94 1-1z"/><path style="opacity:1" fill="#123605" d="M72.5 65.5c.423.765.757 1.598 1 2.5-1.563 1.735-3.23 3.235-5 4.5-1.105-1.8-.439-2.967 2-3.5a9.468 9.468 0 0 1-1.5-2.5c-1.017 2.528-2.184 2.528-3.5 0-2.134 4.056-3.467 3.723-4-1 2.357.163 4.69-.003 7-.5-1.247-1.458-1.247-2.958 0-4.5-3.542-1.578-6.542-.911-9 2-.543.06-.876.393-1 1l2 4c-1.15 1.231-2.317 1.231-3.5 0a11.497 11.497 0 0 0-3.5 5c-1.628-1.035-3.295-1.035-5 0-4.703-6.147-3.203-8.147 4.5-6 2.903-2.046 4.736-4.713 5.5-8-1.7.16-3.366-.007-5-.5-1.122-3.485-.956-6.985.5-10.5.667-1.333 1.333-1.333 2 0 1.214-6.88 3.714-7.546 7.5-2 .925-1.14 1.759-1.14 2.5 0 .367 3.935.533 7.601.5 11l2-1c1.292-7.308 5.625-10.808 13-10.5-.95.718-1.117 1.55-.5 2.5 5.104 1.292 5.604 3.459 1.5 6.5.98 1.779.646 3.445-1 5-4.404.965-8.404.132-12-2.5l-1 1 5 6a6.807 6.807 0 0 1-3 1.5 2.428 2.428 0 0 0 2 .5z"/><path style="opacity:1" fill="#7c8d05" d="m61.5 65.5-2-3c2.458-2.911 5.458-3.578 9-2-1.247 1.542-1.247 3.042 0 4.5-2.31.497-4.643.663-7 .5z"/><path style="opacity:1" fill="#0b3405" d="M66.5 76.5c-1.738 5.266-4.405 9.933-8 14-.996.086-1.83-.248-2.5-1a102.327 102.327 0 0 1-3.5-7c1.33-1.332 2.997-2.165 5-2.5-.928-.388-1.595-1.055-2-2 1.207-1.3 1.874-2.8 2-4.5a32.437 32.437 0 0 0 8-.5 4.452 4.452 0 0 1-2-1.5c2.006-1.126 3.34-.46 4 2-.605 1.981-1.605 2.315-3 1a28.04 28.04 0 0 1-5 1.5c2.199 1.583 4.532 1.75 7 .5z"/><path style="opacity:1" fill="#6e7002" d="M74.5 85.5h-1a103.763 103.763 0 0 0-14.5 8c-1.728-.852-1.895-1.852-.5-3 3.595-4.067 6.262-8.734 8-14 1.604-.787 2.27-2.12 2-4 1.77-1.265 3.438-2.765 5-4.5a11.104 11.104 0 0 0-1-2.5c3.118-.629 6.284-.295 9.5 1a19.895 19.895 0 0 0 6.5-5l1 .5a113.19 113.19 0 0 0-4 9.5 4.932 4.932 0 0 0-3 .5c.95.718 1.117 1.55.5 2.5-3.846 3.093-6.679 6.76-8.5 11z"/><path style="opacity:1" fill="#9a9909" d="M52.5 82.5a102.327 102.327 0 0 0 3.5 7c.67.752 1.504 1.086 2.5 1-1.395 1.148-1.228 2.148.5 3a103.763 103.763 0 0 1 14.5-8c-7.241 6.954-15.908 11.287-26 13-8.78-2.551-16.446-6.885-23-13a44.358 44.358 0 0 0-1-2 18.941 18.941 0 0 1 5-3 276.25 276.25 0 0 1 16 .5 20.473 20.473 0 0 0 3.5 2.5c1.468-1.536 2.968-1.87 4.5-1z"/></svg>
